images/tidex.svg

<svg height="250" viewBox="0 0 250 250" width="250" xmlns="http://www.w3.org/2000/svg"><path d="m0 0h250v250h-250z" fill="#211e32"/><g fill="#fff"><path d="m116.839844 109.910156c10.753906 0 19.121094 7.828125 19.121094 17.058594 0 9.226562-8.351563 17.050781-19.121094 17.050781v.003907h-28.625c-2.214844 0-4.007813 1.660156-4.007813 3.710937v8.429687c0 2.046876 1.792969 3.710938 4.007813 3.710938h28.628906v-.003906c19.828125 0 36.25-14.558594 36.25-32.902344 0-18.355469-16.445312-32.910156-36.253906-32.910156h-28.628906c-2.214844 0-4.007813 1.660156-4.007813 3.714844v8.429687c0 2.046875 1.792969 3.710937 4.007813 3.710937h28.628906zm0 0" fill-rule="evenodd"/><path d="m72.125 97.710938c-.003906-.980469-.429688-1.921876-1.179688-2.613282-.75-.695312-1.769531-1.082031-2.832031-1.085937h-47.066406c-1.0625.003906-2.082031.394531-2.835937 1.089843-.753907.695313-1.175782 1.636719-1.175782 2.621094v8.429688c0 2.050781 1.796875 3.714844 4.011719 3.714844h14.964844v46.300781c0 2.046875 1.796875 3.703125 4.011719 3.703125h9.125c2.214843 0 4.011718-1.65625 4.011718-3.703125v-46.300781h14.972656c2.214844 0 4.015626-1.667969 4.007813-3.71875zm0 0" fill-rule="evenodd"/><path d="m195.777344 114.625-12.152344 11.179688 34.457031 31.851562c.75.695312 1.769531 1.082031 2.832031 1.082031s2.082032-.386719 2.835938-1.082031l6.453125-5.96875c.75-.695312 1.171875-1.636719 1.171875-2.617188 0-.984374-.421875-1.925781-1.171875-2.621093l-34.429687-31.824219zm0 0"/><path d="m183.652344 125.777344 12.101562 11.230468 34.457032-31.851562c.75-.695312 1.171874-1.636719 1.171874-2.617188 0-.984374-.421874-1.925781-1.171874-2.621093l-6.460938-5.96875c-.75-.695313-1.773438-1.085938-2.835938-1.085938s-2.082031.390625-2.835937 1.085938zm0 0"/></g><path d="m195.742188 114.625 12.148437 11.179688-34.453125 31.851562c-.75.695312-1.769531 1.082031-2.832031 1.082031s-2.082031-.386719-2.835938-1.082031l-6.457031-5.96875c-.75-.695312-1.171875-1.636719-1.171875-2.617188 0-.984374.421875-1.925781 1.171875-2.621093zm0 0" fill="#e3163b"/><path d="m207.875 125.773438-12.101562 11.230468-34.453126-31.847656c-.75-.695312-1.171874-1.640625-1.171874-2.621094 0-.980468.421874-1.925781 1.171874-2.621094l6.453126-5.964843c.753906-.695313 1.773437-1.085938 2.835937-1.085938s2.082031.390625 2.832031 1.085938zm0 0" fill="#e3163b"/></svg>

<svg xmlns="http://www.w3.org/2000/svg" xmlns:xlink="http://www.w3.org/1999/xlink" width="250px" height="250px" viewBox="0 0 250 250" version="1.1">
<g id="surface1">
<rect x="0" y="0" width="250" height="250" style="fill:rgb(12.941177%,11.764706%,19.607843%);fill-opacity:1;stroke:none;"/>
<path style=" stroke:none;fill-rule:evenodd;fill:rgb(100%,100%,100%);fill-opacity:1;" d="M 116.839844 109.910156 C 127.59375 109.910156 135.960938 117.738281 135.960938 126.96875 C 135.960938 136.195312 127.609375 144.019531 116.839844 144.019531 L 116.839844 144.023438 L 88.214844 144.023438 C 86 144.023438 84.207031 145.683594 84.207031 147.734375 L 84.207031 156.164062 C 84.207031 158.210938 86 159.875 88.214844 159.875 L 116.84375 159.875 L 116.84375 159.871094 C 136.671875 159.871094 153.09375 145.3125 153.09375 126.96875 C 153.09375 108.613281 136.648438 94.058594 116.839844 94.058594 L 88.210938 94.058594 C 85.996094 94.058594 84.203125 95.71875 84.203125 97.773438 L 84.203125 106.203125 C 84.203125 108.25 85.996094 109.914062 88.210938 109.914062 L 116.839844 109.914062 Z M 116.839844 109.910156 "/>
<path style=" stroke:none;fill-rule:evenodd;fill:rgb(100%,100%,100%);fill-opacity:1;" d="M 72.125 97.710938 C 72.121094 96.730469 71.695312 95.789062 70.945312 95.097656 C 70.195312 94.402344 69.175781 94.015625 68.113281 94.011719 L 21.046875 94.011719 C 19.984375 94.015625 18.964844 94.40625 18.210938 95.101562 C 17.457031 95.796875 17.035156 96.738281 17.035156 97.722656 L 17.035156 106.152344 C 17.035156 108.203125 18.832031 109.867188 21.046875 109.867188 L 36.011719 109.867188 L 36.011719 156.167969 C 36.011719 158.214844 37.808594 159.871094 40.023438 159.871094 L 49.148438 159.871094 C 51.363281 159.871094 53.160156 158.214844 53.160156 156.167969 L 53.160156 109.867188 L 68.132812 109.867188 C 70.347656 109.867188 72.148438 108.199219 72.140625 106.148438 Z M 72.125 97.710938 "/>
<path style=" stroke:none;fill-rule:nonzero;fill:rgb(100%,100%,100%);fill-opacity:1;" d="M 195.777344 114.625 L 183.625 125.804688 L 218.082031 157.65625 C 218.832031 158.351562 219.851562 158.738281 220.914062 158.738281 C 221.976562 158.738281 222.996094 158.351562 223.75 157.65625 L 230.203125 151.6875 C 230.953125 150.992188 231.375 150.050781 231.375 149.070312 C 231.375 148.085938 230.953125 147.144531 230.203125 146.449219 L 195.773438 114.625 Z M 195.777344 114.625 "/>
<path style=" stroke:none;fill-rule:nonzero;fill:rgb(100%,100%,100%);fill-opacity:1;" d="M 183.652344 125.777344 L 195.753906 137.007812 L 230.210938 105.15625 C 230.960938 104.460938 231.382812 103.519531 231.382812 102.539062 C 231.382812 101.554688 230.960938 100.613281 230.210938 99.917969 L 223.75 93.949219 C 223 93.253906 221.976562 92.863281 220.914062 92.863281 C 219.851562 92.863281 218.832031 93.253906 218.078125 93.949219 Z M 183.652344 125.777344 "/>
<path style=" stroke:none;fill-rule:nonzero;fill:rgb(89.019608%,8.627451%,23.137255%);fill-opacity:1;" d="M 195.742188 114.625 L 207.890625 125.804688 L 173.4375 157.65625 C 172.6875 158.351562 171.667969 158.738281 170.605469 158.738281 C 169.542969 158.738281 168.523438 158.351562 167.769531 157.65625 L 161.3125 151.6875 C 160.5625 150.992188 160.140625 150.050781 160.140625 149.070312 C 160.140625 148.085938 160.5625 147.144531 161.3125 146.449219 Z M 195.742188 114.625 "/>
<path style=" stroke:none;fill-rule:nonzero;fill:rgb(89.019608%,8.627451%,23.137255%);fill-opacity:1;" d="M 207.875 125.773438 L 195.773438 137.003906 L 161.320312 105.15625 C 160.570312 104.460938 160.148438 103.515625 160.148438 102.535156 C 160.148438 101.554688 160.570312 100.609375 161.320312 99.914062 L 167.773438 93.949219 C 168.527344 93.253906 169.546875 92.863281 170.609375 92.863281 C 171.671875 92.863281 172.691406 93.253906 173.441406 93.949219 Z M 207.875 125.773438 "/>
</g>
</svg>
